!!!ONB: MCCC : ILB0170_01 : Extracted Monophonic Melody
!!!COM: Beethoven, Ludwig van
!!!OPR: Piano Sonata No.9
!!!OMV: 1
!!!SCT: Op.14 No.1
!!!ODT: 1798///
**kern
*thru
*staff1
*>I
*Ipiano
*clefG2
*k[f#c#g#d#]
*E:
*M4/4
*MM132
=1
2b
2ee
=2
*>A
2cc#
2ff#
=3
2dd#
2bb
=4
4.bb
16ccc#
16ddd#
4eee
4r
=5
16gg#
16ee
16aa
16ff#
16bb
16gg#
16ccc#
16aa
4bb
4r
=6
16G#
16E
16A
16F#
16B
16G#
16c#
16A
4B
4r
=7
8r
4.B
8a
8f#
8d#
8b
=8
4r
8gg#
8ee
8aa
8ff#
8dd#
8bb
=9
4.bb
16aa
16gg#
8ff#
8ee
8dd#
8cc#
=10
1b
=11
4.b
.
16a
16g#
8f#
8e
8d#
8c#
=12
1B
=13
2B
2e
=14
2c#
2f#
=15
2g#
2a
=16
2a#
2b
=17
4a#
4f#
2dd
=18
4cc#
4a#
2b
=19
4a#
4f#
2dd
=20
4cc#
4a#
2ee#
=21
4ff#
4r
4f#
4r
=22
4r
4r
8ff#
8ee
8dd#
8cc#
=23
2b
4b#
4cc#
=24
4cc##
4dd#
4ee
4ff#
=25
4ff##
2gg#
4ff#[
=26
4ff#]
4ee
8ee
8dd#
8cc#
8b
=27
2a#
4b
4b#
=28
4cc#
4cc##
4dd#
4ee
=29
4ee#
2ff#
4ee[
=30
4ee]
4dd#
2r
=31
2r
8F#
8E
8D#
8C#
=32
4BB#
4r
8ff#
8ee
8dd#
8cc#
=33
2b#
[2aa
=34
4aa]
4gg#
2r
=35
2r
8E
8D#
8C#
8BB
=36
4AA#
4r
8ee
8dd#
8cc#
8b
=37
2a#
[2gg
=38
4gg]
4ff#
4r
4ff#
=39
4.ff#
8aa#
4bb
4ff#
=40
4.ff#
8aa#
4bb
4bb#
=41
4ccc#
4ddd#
4eee
4fff#
=42
2eee
4ddd#
4ff#
=43
4.ff#
8aa#
4bb
4ff#
=44
4.ff#
8aa#
4bb
4bb#
=45
4ccc#
4ddd#
4eee
4aa#
=46
4bb
4f#
2g[
=47
4g]
4f#
2g#[
=48
4g#]
4f#
2g[
=49
4g]
4f#
2g#[
=50
4g#]
4f#
4a#
4b
=51
4.dd#
8cc#
4b
4a#
=52
4f#
4b
4cc#
4dd#
=53
4.ff#
8ee
4dd#
4cc#
=54
4ff#
4ff#
4ff#
4ff#
=55
4ff##
4gg#
2r
=56
4r
4A#
2r
=57
8r
8B
8B
8B
8r
8B
8B
8B
=58
8r
8B
8B
8B
8r
8B
8B
8B
=59
8r
8B
8B
8B
8r
8B
8B
8B
=60
8r
8B
8B
8B
8r
8B
8B
8B
=61
2b
2ee
=62
*>A
2cc#
2ff#
=63
2dd#
2bb
=64
4.bb
16ccc#
16ddd#
4eee
4r
=65
16gg#
16ee
16aa
16ff#
16bb
16gg#
16ccc#
16aa
4bb
4r
=66
16G#
16E
16A
16F#
16B
16G#
16c#
16A
4B
4r
=67
8r
4.B
8a
8f#
8d#
8b
=68
4r
8gg#
8ee
8aa
8ff#
8dd#
8bb
=69
4.bb
16aa
16gg#
8ff#
8ee
8dd#
8cc#
=70
1b
=71
4.b
.
16a
16g#
8f#
8e
8d#
8c#
=72
1B
=73
2B
2e
=74
2c#
2f#
=75
2g#
2a
=76
2a#
2b
=77
4a#
4f#
2dd
=78
4cc#
4a#
2b
=79
4a#
4f#
2dd
=80
4cc#
4a#
2ee#
=81
4ff#
4r
4f#
4r
=82
4r
4r
8ff#
8ee
8dd#
8cc#
=83
2b
4b#
4cc#
=84
4cc##
4dd#
4ee
4ff#
=85
4ff##
2gg#
4ff#[
=86
4ff#]
4ee
8ee
8dd#
8cc#
8b
=87
2a#
4b
4b#
=88
4cc#
4cc##
4dd#
4ee
=89
4ee#
2ff#
4ee[
=90
4ee]
4dd#
2r
=91
2r
8F#
8E
8D#
8C#
=92
4BB#
4r
8ff#
8ee
8dd#
8cc#
=93
2b#
[2aa
=94
4aa]
4gg#
2r
=95
2r
8E
8D#
8C#
8BB
=96
4AA#
4r
8ee
8dd#
8cc#
8b
=97
2a#
[2gg
=98
4gg]
4ff#
4r
4ff#
=99
4.ff#
8aa#
4bb
4ff#
=100
4.ff#
8aa#
4bb
4bb#
=101
4ccc#
4ddd#
4eee
4fff#
=102
2eee
4ddd#
4ff#
=103
4.ff#
8aa#
4bb
4ff#
=104
4.ff#
8aa#
4bb
4bb#
=105
4ccc#
4ddd#
4eee
4aa#
=106
4bb
4f#
2g[
=107
4g]
4f#
2g#[
=108
4g#]
4f#
2g[
=109
4g]
4f#
2g#[
=110
4g#]
4f#
4a#
4b
=111
4.dd#
8cc#
4b
4a#
=112
4f#
4b
4cc#
4dd#
=113
4.ff#
8ee
4dd#
4cc#
=114
4ff#
4ff#
4ff#
4ff#
=115
4ff##
4gg#
2r
=116
4r
4A#
2r
=117
8r
8B
8B
8B
8r
8B
8B
8B
=118
8r
8B
8B
8B
8r
8B
8B
8B
=119
8r
8B
8B
8B
8r
8B
8B
8B
=120
8r
8B
8B
8B
8r
8B
8B
8B
=121
2b
2ee
=122
*>B
2cc
2ff
=123
2ff
2bb
=124
2ddd
2fff
=125
2.eee
8ddd
8ccc
=126
8bb
8aa
8gg#
8aa
8gg#
8aa
8bb
8aa
=127
2.aa
8ddd
8ccc
=128
8bb
8aa
8gg#
8aa
8gg#
8aa
8bb
8aa
=129
[2aa
8aa]
8eee
8ddd
8ccc
=130
8bb
8aa
8gg#
8aa
8gg#
8aa
8bb
8aa
=131
2.aa
8gg#
8aa
=132
8gg#
8aa
8bb
8aa
8gg#
8aa
8bb
8ccc
=133
2.ccc
8ddd
8eee
=134
4eee
2fff
4bb
=135
2.ccc
8gg
8ff
=136
8ff
8ee
8dd#
8ee
8dd#
8ee
8ff
8ee
=137
2.ee
8gg
8ff#
=138
8ff#
8ee
8dd#
8ee
8dd#
8ee
8ff#
8ee
=139
2.ee
4eee
=140
[2eee
8eee]
8gg
8ff#
8ee
=141
8dd#
8b
8b
8b
8r
8b
8b
8b
=142
8r
8b
8b
8b
8r
8b
8b
8b
=143
2b
2ee
=144
2dd#
2a#
=145
8r
8b
8b
8b
8r
8b
8b
8b
=146
8r
8b
8b
8b
8r
8b
8b
8b
=147
2b
2ee
=148
2dd#
2a#
=149
2b
2a
=150
2g#
2f#
=151
2b
2ee
=152
2cc#
2ff#
=153
2dd#
4bb
4bb
=154
4.bb
16ccc#
16ddd#
4eee
4r
=155
16gg#
16ee
16aa
16ff#
16bb
16gg#
16ccc#
16aa
4bb
4r
=156
16G#
16E
16A
16F#
16B
16G#
16c#
16A
4B
4r
=157
8r
4.B
8a
8f#
8d#
8b
=158
8r
4b
8ee
8aa
8ff#
8dd#
[8bb
=159
4.bb]
16aa
16gg#
8ff#
8ee
8dd#
8cc#
=160
1b
=161
4.b
.
16a
16g#
8f#
8e
8d#
8c#
=162
1B
.
.
4D#
=163
1r
=164
2r
2f
=165
16r
16e
16f
16g
16a
16b
16cc
16dd
8ee
16ff
16gg
16aa
16bb
16ccc
16ddd
=166
4eee
16dd#
16ee
16dd#
16ee
16d#
16e
16d#
16e
16d#
16e
16g
16e
=167
4d#
4B
2g
=168
4f#
4d#
2a#
=169
2b
2gg
=170
4ff#
4dd#
2aa#
=171
2bb
2aa#
=172
4bb
4r
4b
4r
=173
4r
4r
8bb
8aa
8gg#
8ff#
=174
2ee
4ff#
4ff##
=175
4gg#
4aa
4aa#
4bb
=176
4bb#
2ccc#
4bb[
=177
4bb]
4aa
8aa
8gg#
8ff#
8ee
=178
2dd#
4ee
4ee#
=179
4ff#
4ff##
4gg#
4aa
=180
4aa#
2bb
4aa[
=181
4aa]
4gg#
2r
=182
2r
8B
8A
8G#
8F#
=183
4E#
4r
8bb
8aa
8gg#
8ff#
=184
2ee#
[2ddd
=185
4ddd]
4ccc#
2r
=186
2r
8A
8G#
8F#
8E
=187
4D#
4r
8aa
8gg#
8ff#
8ee
=188
2dd#
[2ccc
=189
4ccc]
4bb
4r
4b
=190
4.b
8dd#
4ee
4b
=191
4.b
8dd#
4ee
4ee#
=192
4ff#
4gg#
4aa
4bb
=193
2aa
4gg#
4bb
=194
4.bb
8ddd#
4eee
4bb
=195
4.bb
8ddd#
4eee
4ddd
=196
4ccc#
4gg#
4aa
4dd#
=197
4ee
4b
2cc[
=198
4cc]
4b
2cc#[
=199
4cc#]
4b
2cc[
=200
4cc]
4b
2cc#[
=201
4cc#]
4b
4dd#
4ee
=202
4.gg#
8ff#
4ee
4dd#
=203
4b
4ee
4ff#
4gg#
=204
4.bb
8aa
4gg#
4ff#
=205
4bb
4bb
4bb
4bb
=206
4bb#
4ccc#
2r
=207
4r
4d#
2r
=208
8r
8e
8e
8e
8r
8e
8e
8e
=209
8r
8e
8e
8e
8r
8e
8e
8e
=210
8r
8e
8e
8e
8r
8e
8e
8e
=211
8r
8e
8e
8e
8r
8e
8e
8e
=212
8r
8e
8e
8e
8r
8e
8e
8e
=213
8r
8e
8e
8e
8r
8e
8e
8e
=214
8r
8e
8e
8e
8r
8e
8e
8e
=215
2e
2a
=216
2g#
2dd#
=217
2ee
2aa
=218
2gg#
2ddd#
=219
2eee
2ddd#
=220
2eee
2ddd#
=221
2eee
2eee
=222
2eee
2r
==
*-
